T: Holy Land, The
M: 4/4
L: 1/8
K: Dmaj
|: A |B3 c A2 Bc | dF3 DFAd | BG G2 ABdf | afeg fdd :||
e | f2 df dfaf | gfed (3Bcd eg | f2 df dfaf | gfeg fdde |
f2 df dfaf | gfed cdeg | dfaf g2 ag | (3fgf eg fdd ||
